packages/kaspersky-hexa-ui-icons/src/iconsSVGs/16x12/FlagCas.svg

<svg width="16" height="12" viewBox="0 0 16 12" fill="none" xmlns="http://www.w3.org/2000/svg">
<g clip-path="url(#clip0_41818_4382)">
<rect width="16" height="12" rx="2" fill="white"/>
<mask id="mask0_41818_4382" style="mask-type:luminance" maskUnits="userSpaceOnUse" x="0" y="0" width="16" height="12">
<rect width="16" height="12" rx="2" fill="white"/>
</mask>
<g mask="url(#mask0_41818_4382)">
<rect width="16" height="12" fill="#19BFBF"/>
<path d="M9.57935 1.90283C9.76342 1.90283 9.91232 2.05177 9.91235 2.23584V2.56104C9.91235 2.61626 9.89028 2.66888 9.85083 2.70752C9.72537 2.83019 9.80203 3.04355 9.97681 3.05908L13.2297 3.34912C13.4651 3.37004 13.6049 3.62211 13.4973 3.83252L13.4338 3.95557C13.3769 4.06687 13.2629 4.13703 13.1379 4.13721H12.3342C12.2474 4.13725 12.164 4.17135 12.1018 4.23193L11.8303 4.49756C11.6513 4.67262 11.7221 4.97563 11.9602 5.05322L12.4485 5.2124C12.5323 5.23971 12.6017 5.29899 12.6418 5.37744L12.8059 5.69775C12.8907 5.86372 12.823 6.06707 12.6555 6.14893L12.4866 6.23096C12.3284 6.30849 12.2649 6.50079 12.345 6.65771L12.4534 6.87061C12.5108 6.9834 12.4287 7.1167 12.302 7.1167C12.2385 7.11659 12.1806 7.08138 12.1516 7.0249L12.0237 6.7749C11.9213 6.57512 11.654 6.53197 11.4934 6.68896L11.2991 6.87842C11.1653 7.00917 11.1653 7.2252 11.2991 7.35596L11.3362 7.39111C11.4003 7.45383 11.4368 7.54066 11.4368 7.63037V8.02686C11.4366 8.15404 11.3635 8.26981 11.2493 8.32568L10.7444 8.57275C10.6989 8.595 10.6485 8.60689 10.5979 8.60693H10.0491C9.96205 8.60693 9.87794 8.64088 9.81567 8.70166L9.77563 8.74072C9.6419 8.87148 9.6419 9.08751 9.77563 9.21826L9.81274 9.25342C9.87689 9.31613 9.91235 9.40297 9.91235 9.49268V9.56299C9.9123 9.80944 9.65429 9.97104 9.43286 9.86279L9.19946 9.74756C9.16754 9.73195 9.13796 9.71185 9.11255 9.68701L8.42798 9.01709C8.40235 8.99198 8.38086 8.96308 8.3645 8.93115L8.33813 8.88037C8.20817 8.62716 7.84147 8.64316 7.73364 8.90674L7.32642 9.8999C7.27756 10.0189 7.16205 10.097 7.03345 10.0972C6.92854 10.0972 6.82991 10.0451 6.77075 9.9585L6.16138 9.06494C6.12364 9.00959 6.10376 8.94346 6.10376 8.87646V8.49658C6.10376 8.34297 5.99809 8.20884 5.84888 8.17236L4.82251 7.92139C4.69899 7.89119 4.5795 7.9847 4.57935 8.11182C4.57935 8.18678 4.62235 8.25565 4.6897 8.28857L4.91724 8.3999C5.12385 8.50123 5.16778 8.77607 5.00317 8.93701L4.96021 8.97998L4.36646 9.56006C4.26574 9.65842 4.11409 9.68323 3.98755 9.62158L3.56079 9.4126C3.48136 9.37367 3.42045 9.30489 3.39185 9.22119L3.07349 8.28662C3.06173 8.25206 3.05591 8.21571 3.05591 8.1792V7.97021C3.05593 7.90108 3.08365 7.83497 3.13306 7.78662C3.27109 7.65166 3.21681 7.41798 3.03345 7.35791L2.52368 7.19189C2.38668 7.14716 2.29431 7.0196 2.29419 6.87549V6.70557C2.29419 6.52147 2.4431 6.37256 2.6272 6.37256H3.35962C3.41032 6.37257 3.46055 6.38349 3.5061 6.40576L3.90454 6.60107C4.06773 6.68074 4.26511 6.61523 4.3479 6.45361L4.42505 6.30225C4.5099 6.13632 4.442 5.93303 4.27466 5.85107L3.3606 5.40381C3.19311 5.32192 3.12532 5.11863 3.21021 4.95264L3.37231 4.63525C3.41327 4.55501 3.4199 4.46176 3.39087 4.37646L3.29321 4.09033C3.2053 3.83236 3.47316 3.59661 3.71802 3.71631C3.78228 3.74771 3.85556 3.7557 3.92505 3.73877L5.34106 3.39209L6.77661 3.0415C6.83461 3.02731 6.88822 2.99828 6.93091 2.95654L7.91138 1.99756C7.9736 1.93685 8.05686 1.90287 8.1438 1.90283H9.57935ZM8.00806 9.35205C8.21832 9.35207 8.38873 9.51858 8.38892 9.72412C8.38892 9.92982 8.21844 10.0972 8.00806 10.0972C7.79766 10.0972 7.6272 9.92983 7.6272 9.72412C7.62738 9.51857 7.79778 9.35205 8.00806 9.35205ZM13.1038 7.1167C13.2554 7.11685 13.3025 7.32254 13.1663 7.38916L12.9602 7.48975L13.3411 7.86182L13.0295 8.47119C12.9871 8.55416 12.902 8.60676 12.8088 8.60693C12.586 8.60693 12.4757 8.33692 12.635 8.18115L12.9602 7.86182V7.26025C12.9602 7.18123 13.0247 7.1167 13.1038 7.1167ZM5.72192 5.62744C5.51182 5.62768 5.3412 5.79406 5.34106 5.99951C5.34106 6.20507 5.51174 6.37232 5.72192 6.37256C5.93232 6.37256 6.10376 6.20522 6.10376 5.99951C6.10363 5.79391 5.93224 5.62744 5.72192 5.62744Z" fill="white"/>
</g>
</g>
<defs>
<clipPath id="clip0_41818_4382">
<rect width="16" height="12" fill="white"/>
</clipPath>
</defs>
</svg>

<svg xmlns="http://www.w3.org/2000/svg" width="16" height="12" fill="none" viewBox="0 0 16 12"><g clip-path="url(#a)"><rect width="16" height="12" fill="#fff" rx="2"/><mask id="b" width="16" height="12" x="0" y="0" maskUnits="userSpaceOnUse" style="mask-type:luminance"><rect width="16" height="12" fill="#fff" rx="2"/></mask><g mask="url(#b)"><path fill="#19bfbf" d="M0 0h16v12H0z"/><path fill="#fff" d="M9.5794 1.9028c.184 0 .333.149.333.333v.3252a.205.205 0 0 1-.0616.1465c-.1254.1227-.0488.336.126.3516l3.2529.29c.2354.021.3752.273.2676.4834l-.0635.123a.333.333 0 0 1-.2959.1817h-.8037a.334.334 0 0 0-.2324.0947l-.2715.2657c-.179.175-.1082.478.1299.5556l.4883.1592a.333.333 0 0 1 .1933.165l.1641.3204a.3334.3334 0 0 1-.1504.4511l-.1689.082a.3154.3154 0 0 0-.1416.4268l.1084.213c.0574.1127-.0247.246-.1514.246a.169.169 0 0 1-.1504-.0918l-.1279-.25c-.1024-.1998-.3697-.243-.5303-.086l-.1943.1895a.334.334 0 0 0 0 .4776l.0371.0351a.336.336 0 0 1 .1006.2393v.3965a.334.334 0 0 1-.1875.2988l-.5049.247a.335.335 0 0 1-.1465.0342h-.5488a.335.335 0 0 0-.2334.0948l-.04.039a.3344.3344 0 0 0 0 .4776l.037.0351a.335.335 0 0 1 .0997.2393v.0703c-.0001.2464-.2581.408-.4795.2998l-.2334-.1152a.33.33 0 0 1-.087-.0606l-.6845-.67a.33.33 0 0 1-.0635-.0858l-.0264-.0508c-.13-.2532-.4966-.2372-.6045.0263L7.3264 9.9a.3175.3175 0 0 1-.293.1973.319.319 0 0 1-.2627-.1387l-.6093-.8936a.335.335 0 0 1-.0576-.1884v-.38a.3344.3344 0 0 0-.255-.3241l-1.0263-.251a.1965.1965 0 0 0-.2431.1904c0 .075.043.1438.1103.1768l.2275.1113c.2066.1013.2506.3762.086.5371l-.043.043-.5937.58a.333.333 0 0 1-.379.0616l-.4267-.209a.334.334 0 0 1-.169-.1914l-.3183-.9346a.33.33 0 0 1-.0176-.1074v-.209a.257.257 0 0 1 .0772-.1836c.138-.135.0837-.3686-.0997-.4287l-.5097-.166a.333.333 0 0 1-.2295-.3164v-.17c0-.184.1489-.333.333-.333h.7324c.0507 0 .101.011.1465.0333l.3984.1953a.334.334 0 0 0 .4434-.1475l.0771-.1513a.3335.3335 0 0 0-.1503-.4512l-.9141-.4473a.3333.3333 0 0 1-.1504-.4512l.1621-.3174a.333.333 0 0 0 .0186-.2587l-.0977-.2862c-.0879-.258.18-.4937.4248-.374a.307.307 0 0 0 .207.0225l1.416-.3467 1.4356-.3506a.334.334 0 0 0 .1543-.085l.9805-.959a.333.333 0 0 1 .2324-.0947zM8.008 9.3521c.2102 0 .3806.1665.3808.372 0 .2057-.1705.3731-.3808.3731s-.3809-.1674-.3809-.373c.0002-.2056.1706-.3721.3809-.3721m5.0957-2.2354c.1516.0002.1987.2058.0625.2725l-.2061.1006.3809.372-.3116.6094a.249.249 0 0 1-.2207.1357c-.2228 0-.3331-.27-.1738-.4257l.3252-.3194v-.6015a.144.144 0 0 1 .1436-.1436M5.7219 5.6274c-.21.0003-.3807.1667-.3808.3721 0 .2056.1706.3728.3808.373.2104 0 .3819-.1673.3819-.373-.0002-.2056-.1716-.372-.3819-.372"/></g></g><defs><clipPath id="a"><path fill="#fff" d="M0 0h16v12H0z"/></clipPath></defs></svg>
